X:1
T:Hej dunkom
T:Svensk folkvisa Arr: P. J. F. Vilhelm Svedbom (1843–1904) 
%%score [ 1 2 3 4 ]
L:1/8
Q:1/4=100
M:3/4
K:Cb
V:1 treble-8 nm="T1"
V:2 treble-8 nm="T2"
V:3 bass nm="B1"
V:4 bass nm="B2"
V:1
!f! a z e2 e z/ e/ | (3d e d c2 c z | A B c d!<(! e c | d e f(g/ f/) e2!<)! |!f! a z e3 e | %5
w: Hej! dunk- om så|län- ge vi le- vom,|sjung- om dan- som, ha- ven|ro- ligt var- * je dag.|Hej! dunk- om|
 d (e/d/) c2 c2 |!p! A B c d e z/ d/ | B (c/B/) A2 z!mf! E | A A (3c c c e e | d d (3f g f e z | %10
w: kvin- ti- * le- rum,|så har far min gjort och|så gör * jag. För|nit- ton da- ler i dag och|tju- gu da- ler i går|
 z6 | z6 |!ff! !fermata!=g2 z2 b2 | !>!e2 !>!e2 !fermata!z!pp! E | A B c d e d | %15
w: ||Hej! hej|dunk- om! Och|än- då har jag en riks|
 B (c/B/) !fermata!A2 !fermata!z2 |!mf! a2 e3 e | (3d e d c2 c z |!p! A B c d e c | %19
w: da- ler * kvar.|Den flic- kan|va hon va' sö- ter,|som en fa- ger lil- ja|
!<(! d e f (g/f/) e2!<)! |!mf! a2 e3 e | (3d e d c2 c z |!p! A B c d e z/ d/ | (3B c B A2 z!mf! E | %24
w: up- på grön- an * äng.|Ö- gon, som|gjor- de mig blö- ter,|kas- ta hon på mig, jag|lyck- li- ga dräng. För|
!<(! A A (3c c c e e!<)! | d d (3f g f e z | z6 | z2 z2 !fermata!z!pp!"^a tempo subito" E | %28
w: nit- ton da- ler i dag och|tju- gu da- ler i går||Och|
 A B c d e d | f (g/f/) e z z2 | z6 | z6 | z2!ff! !fermata!a4 | e2 (3e z e (3d e d | %34
w: än- då har jag en riks-|da- ler * kvar.|||Hej!|dunk- om så län- ge vi|
 c2 (3c z B (3!>!B !>!c !>!B | (e2 !fermata!b4) | a6 |] %37
w: le- vom, så län- ge vi|le- *|vom.|
V:2
!f! e z c2 c z/ c/ | (3B c B A2 A z | A A A c!<(! c c | B c d d e2!<)! |!f! f z c3 c | B B A2 G2 | %6
w: Hej! dunk- om så|län- ge vi le- vom,|sjung- om dan- som, ha- ven|ro- ligt var- je dag.|Hej! dunk- om|kvin- ti- le- rum,|
!p! F A A B c z/ A/ | =G G A2 z!mf! E | A A (3c c c c c | B B (3d d d B z | z6 | z6 | %12
w: så har far min gjort och|så gör jag. För|nit- ton da- ler i dag och|tju- gu da- ler i går|||
!ff! !fermata!e2 z2 =d2 | !>!B2 !>!B2 !fermata!z!pp! E | A A A B c B | %15
w: Hej! hej|dunk- om! Och|än- då har jag en riks|
 =G G !fermata!A2 !fermata!z2 |!mf! e2 c3 c | (3B c B A2 A z |!p! A A A c c c | %19
w: da- ler kvar.|Den flic- kan|va hon va' sö- ter,|som en fa- ger lil- ja|
!<(! B c d d e2!<)! |!mf! f2 c3 c | (3B B B A2 G z |!p! F A A B c z/ A/ | (3=G G G A2 z!mf! E | %24
w: up- på grön- an äng.|Ö- gon, som|gjor- de mig blö- ter,|ka- sta hon på mig, jag|lyck- li- ga dräng. För|
!<(! A A (3A A A c c!<)! | B B (3d d d B z | z6 | !fermata!z6 | z2 z2!pp! !>!A B | %29
w: nit- ton da- ler i dag och|tju- gu da- ler i går|||Än- då|
 c d e d B (c/B/) | A z z2 z2 | z6 | z2!ff! !fermata!=d4 | e2 (3e z e (3d e d | %34
w: har jag en riks- da- ler *|kvar.||Hej!|dunk- om så län- ge vi|
 c2 (3c z B (3!>!B !>!c !>!B | (B2 !fermata!d4) | c6 |] %37
w: le- vom, så län- ge vi|le- *|vom.|
V:3
!f! C z A,2 A, z/ A,/ | (3A, =G, G, E,2 E, z | F, A, A, A,!<(! G, G, | G, C C B, C2!<)! | %4
w: Hej! dunk- om, så|län- ge vi le- vom,|sjung- om dan- som, ha- ven|ro- ligt var- je dag.|
!f! C z G,3 G, | F, F, F,2 E,2 |!p! F, F, E, A, A, z/ F,/ | E, D, C,2 z!mf! E, | %8
w: Hej! dunk- om|kvin- ti- le- rom,|så har far min gjort och|så gör jag. För|
 A, A, (3A, A, A, A, A, | A, A, (3A, A, A, =G, z | z6 | z6 |!ff! !fermata!B,2 z2 A,2 | %13
w: nit- ton da- ler i dag och|tju- gu da- ler i går|||Hej! hej|
 !>!=G,2 !>!G,2 !fermata!z!pp! E, | A, A, A, G, G, F, | E, D, !fermata!C,2 !fermata!z2 | %16
w: dunk- om! Och|än- då har jag en riks-|da- ler kvar.|
!mf! C2 A,3 A, | (3A, =G, G, E,2 E, z |!p! F, A, A, A, G, G, |!<(! G, C C B, C2!<)! | %20
w: Den flic- kan|va hon va’ sö- ter,|som en fa- ger lil- ja|up- på grön- an äng.|
!mf! C2 G,3 G, | (3F, F, F, F,2 E, z |!p! F, F, E, A, A, z/ F,/ | (3E, D, D, C,2 z!mf! E, | %24
w: Ö- gon, som|gjor- de mig blö- ter,|ka- sta hon på mig, jag|lyck- li- ga dräng. För|
!<(! A, A, (3A, A, A, A, A,!<)! | A, A, (3A, A, A, =G, z | z6 | !fermata!z6 | %28
w: nit- ton da- ler i dag och|tju- gu da- ler i går|||
 z2!pp! !>!A, B, C B, | A,3 B, =G, G, | A, z z2 z2 | !fermata!z6 |!ff! !fermata!B,6 | %33
w: Än- då har jag|en riks- da- ler|kvar.||Hej!|
 C2 (3C z C (3B, C B, | A,2 (3A, z B, (3!>!B, !>!C !>!B, | (A,2 !fermata!=G,4) | E,6 |] %37
w: dunk- om så län- ge vi|le- vom, så län- ge vi|le *|vom.|
V:4
!f! A, z z2 z2 | E, z A,,2 A,, z | F, F, F, F,!<(! G, E, | G, G, G, G, C2!<)! |!f! F, z z2 z2 | %5
w: Hej!|Hej! dunk- om,|sjung- om dan- som, ha- ven|ro- ligt var- je dag.|Hej!|
 G,, z C,2 C,2 |!p! D, D, E, E, E, z/ F,/ | E, E, A,,2 z2 | z6 | z2 z2 z!mf! E, | %10
w: Hej! dunk- om,|så har far min gjort och|så gör jag.||För|
 A,, A,, (3C, C, C, E, E, | D, D, (3F, G, F, E,2 |!ff! !fermata!B,2 z2 B,,2 | %13
w: nit- ton da- ler i dag och|tju- gu da- ler i går.|Hej! hej|
 !>!E,2 !>!E,2 !fermata!z!pp! E, | A, A, A, G, C, D, | E, E,, !fermata!F,,2 !fermata!z2 | z6 | %17
w: dunk- om! Och|än- då har jag en riks-|da- ler kvar.||
!mf! E, z A,,2 A,, z |!p! F, F, F, F, G, E, |!<(! G, G, G, G, C2!<)! |!mf! F,2 G,2 z2 | %21
w: den flic- kan|som en fa- ger lil- ja|up- på grön- an äng.|Ö- gon,|
 G,, z C,2 C, z |!p! D, D, E,2 z2 | E,, z A,,2 z2 | z6 | z2 z2 z!mf! E, | %26
w: hej dunk- om!|kas ta hon|på mig||För|
 A,, A,, (3C, C, C, E, E, |"^poco rall." D, D, (3F, G, F, .!fermata!E, z | z6 | %29
w: nit- ton da- ler i dag och|tju- gu da- ler i går.||
!pp! !>!A,, B,, C, D, E, D, | F, (G,/F,/) C, B,,"^rall." D, (E,/D,/) | %31
w: Än- då har jag en riks-|da- ler, * en riks- da- ler, *|
 A,, =G,, B,, (C,/B,,/) !fermata!F,,2 | z2!ff! !fermata!B,,4 | E,2 E, z z E, | %34
w: en riks- da- ler * kvar.|Hej!|dunk- om, så|
 F,2 (3F, z B, (3!>!B, !>!C !>!B, | !fermata!E,6 | A,,6 |] %37
w: län- ge, så län- ge vi|le-|vom|

